( Made using CamBam - http://www.cambam.co.uk )
( uhmw_dremel_mounts 2/27/2012 2:31:32 PM )
( T0 : 0.125 )
G20 G90 G64 G40
G0 Z0.125
( T0 : 0.125 )
T0 M6
( Profile1 )
G17
M3 S1000
G0 X-1.7587 Y-2.8227
G1 F10.0 Z-0.125
G1 F60.0 X-1.0963
G3 X-1.0338 Y-2.7602 I0.0 J0.0625
G3 X-0.9713 Y-2.8227 I0.0625 J0.0
G1 X-0.3625
G3 X-0.05 Y-2.5102 I0.0 J0.3125
G1 Y-0.2733
G3 X-0.3625 Y0.0392 I-0.3125 J0.0
G1 X-0.865
G1 Y0.4767
G3 X-0.9275 Y0.5392 I-0.0625 J0.0
G1 X-1.3025
G3 X-1.365 Y0.4767 I0.0 J-0.0625
G1 Y-0.3342
G3 X-1.3109 Y-0.3961 I0.0625 J0.0
G2 X-0.8763 Y-1.9429 I-0.1167 J-0.8672
G3 X-0.8995 Y-1.9914 I0.0394 J-0.0485
G1 Y-2.3352
G1 X-1.9556
G1 Y-1.9914
G3 X-1.9787 Y-1.9429 I-0.0625 J0.0
G2 X-1.5442 Y-0.3961 I0.5512 J0.6796
G3 X-1.49 Y-0.3342 I-0.0083 J0.0619
G1 Y0.4767
G3 X-1.5525 Y0.5392 I-0.0625 J0.0
G1 X-1.9275
G3 X-1.99 Y0.4767 I0.0 J-0.0625
G1 Y0.0392
G1 X-2.4925
G3 X-2.805 Y-0.2733 I0.0 J-0.3125
G1 Y-2.5102
G3 X-2.4925 Y-2.8227 I0.3125 J0.0
G1 X-1.8837
G3 X-1.8212 Y-2.7602 I0.0 J0.0625
G3 X-1.7587 Y-2.8227 I0.0625 J0.0
G1 F10.0 Z-0.25
G1 F60.0 X-1.0963
G3 X-1.0338 Y-2.7602 I0.0 J0.0625
G3 X-0.9713 Y-2.8227 I0.0625 J0.0
G1 X-0.3625
G3 X-0.05 Y-2.5102 I0.0 J0.3125
G1 Y-0.2733
G3 X-0.3625 Y0.0392 I-0.3125 J0.0
G1 X-0.865
G1 Y0.4767
G3 X-0.9275 Y0.5392 I-0.0625 J0.0
G1 X-1.3025
G3 X-1.365 Y0.4767 I0.0 J-0.0625
G1 Y-0.3342
G3 X-1.3109 Y-0.3961 I0.0625 J0.0
G2 X-0.8763 Y-1.9429 I-0.1167 J-0.8672
G3 X-0.8995 Y-1.9914 I0.0394 J-0.0485
G1 Y-2.3352
G1 X-1.9556
G1 Y-1.9914
G3 X-1.9787 Y-1.9429 I-0.0625 J0.0
G2 X-1.5442 Y-0.3961 I0.5512 J0.6796
G3 X-1.49 Y-0.3342 I-0.0083 J0.0619
G1 Y0.4767
G3 X-1.5525 Y0.5392 I-0.0625 J0.0
G1 X-1.9275
G3 X-1.99 Y0.4767 I0.0 J-0.0625
G1 Y0.0392
G1 X-2.4925
G3 X-2.805 Y-0.2733 I0.0 J-0.3125
G1 Y-2.5102
G3 X-2.4925 Y-2.8227 I0.3125 J0.0
G1 X-1.8837
G3 X-1.8212 Y-2.7602 I0.0 J0.0625
G3 X-1.7587 Y-2.8227 I0.0625 J0.0
G1 F10.0 Z-0.375
G1 F60.0 X-1.0963
G3 X-1.0338 Y-2.7602 I0.0 J0.0625
G3 X-0.9713 Y-2.8227 I0.0625 J0.0
G1 X-0.3625
G3 X-0.05 Y-2.5102 I0.0 J0.3125
G1 Y-2.0861
G1 Y-1.9736 Z-0.31
G1 Y-1.8611 Z-0.375
G1 Y-0.2733
G3 X-0.3625 Y0.0392 I-0.3125 J0.0
G1 X-0.5198
G1 X-0.6323 Z-0.31
G1 X-0.7448 Z-0.375
G1 X-0.865
G1 Y0.4767
G3 X-0.9275 Y0.5392 I-0.0625 J0.0
G1 X-1.3025
G3 X-1.365 Y0.4767 I0.0 J-0.0625
G1 Y-0.3342
G3 X-1.3109 Y-0.3961 I0.0625 J0.0
G2 X-0.8763 Y-1.9429 I-0.1167 J-0.8672
G3 X-0.8995 Y-1.9914 I0.0394 J-0.0485
G1 Y-2.3352
G1 X-1.9556
G1 Y-1.9914
G3 X-1.9787 Y-1.9429 I-0.0625 J0.0
G2 X-2.2961 Y-1.369 I0.5512 J0.6796
G2 X-2.3025 Y-1.2565 Z-0.31 I0.8686 J0.1057
G2 X-2.2944 Y-1.144 Z-0.375 I0.875 J-0.0068
G2 X-1.5442 Y-0.3961 I0.8668 J-0.1193
G3 X-1.49 Y-0.3342 I-0.0083 J0.0619
G1 Y0.4767
G3 X-1.5525 Y0.5392 I-0.0625 J0.0
G1 X-1.9275
G3 X-1.99 Y0.4767 I0.0 J-0.0625
G1 Y0.0392
G1 X-2.4925
G3 X-2.805 Y-0.2733 I0.0 J-0.3125
G1 Y-2.5102
G3 X-2.7831 Y-2.6252 I0.3125 J0.0
G3 X-2.7222 Y-2.722 Z-0.31 I0.2906 J0.115
G3 X-2.6305 Y-2.7905 Z-0.375 I0.2297 J0.2119
G3 X-2.4925 Y-2.8227 I0.138 J0.2804
G1 X-1.8837
G3 X-1.8212 Y-2.7602 I0.0 J0.0625
G3 X-1.7587 Y-2.8227 I0.0625 J0.0
G1 F10.0 Z-0.41
G1 F60.0 X-1.0963
G3 X-1.0338 Y-2.7602 I0.0 J0.0625
G3 X-0.9713 Y-2.8227 I0.0625 J0.0
G1 X-0.3625
G3 X-0.05 Y-2.5102 I0.0 J0.3125
G1 Y-2.0861
G1 Y-1.9736 Z-0.31
G1 Y-1.8611 Z-0.41
G1 Y-0.2733
G3 X-0.3625 Y0.0392 I-0.3125 J0.0
G1 X-0.5198
G1 X-0.6323 Z-0.31
G1 X-0.7448 Z-0.41
G1 X-0.865
G1 Y0.4767
G3 X-0.9275 Y0.5392 I-0.0625 J0.0
G1 X-1.3025
G3 X-1.365 Y0.4767 I0.0 J-0.0625
G1 Y-0.3342
G3 X-1.3109 Y-0.3961 I0.0625 J0.0
G2 X-0.8763 Y-1.9429 I-0.1167 J-0.8672
G3 X-0.8995 Y-1.9914 I0.0394 J-0.0485
G1 Y-2.3352
G1 X-1.9556
G1 Y-1.9914
G3 X-1.9787 Y-1.9429 I-0.0625 J0.0
G2 X-2.2961 Y-1.369 I0.5512 J0.6796
G2 X-2.3025 Y-1.2565 Z-0.31 I0.8686 J0.1057
G2 X-2.2944 Y-1.144 Z-0.41 I0.875 J-0.0068
G2 X-1.5442 Y-0.3961 I0.8668 J-0.1193
G3 X-1.49 Y-0.3342 I-0.0083 J0.0619
G1 Y0.4767
G3 X-1.5525 Y0.5392 I-0.0625 J0.0
G1 X-1.9275
G3 X-1.99 Y0.4767 I0.0 J-0.0625
G1 Y0.0392
G1 X-2.4925
G3 X-2.805 Y-0.2733 I0.0 J-0.3125
G1 Y-2.5102
G3 X-2.7831 Y-2.6252 I0.3125 J0.0
G3 X-2.7222 Y-2.722 Z-0.31 I0.2906 J0.115
G3 X-2.6305 Y-2.7905 Z-0.41 I0.2297 J0.2119
G3 X-2.4925 Y-2.8227 I0.138 J0.2804
G1 X-1.8837
G3 X-1.8212 Y-2.7602 I0.0 J0.0625
G3 X-1.7587 Y-2.8227 I0.0625 J0.0
( Profile2 )
S1000
G0 Z0.125
G0 X1.104 Y-2.8023
G1 F10.0 Z-0.125
G1 F60.0 X1.7664
G3 X1.8289 Y-2.7398 I0.0 J0.0625
G3 X1.8914 Y-2.8023 I0.0625 J0.0
G1 X2.5002
G3 X2.8127 Y-2.4898 I0.0 J0.3125
G1 Y-0.2529
G3 X2.5002 Y0.0596 I-0.3125 J0.0
G1 X1.9977
G1 Y0.4971
G3 X1.9352 Y0.5596 I-0.0625 J0.0
G1 X1.5602
G3 X1.4977 Y0.4971 I0.0 J-0.0625
G1 Y-0.2808
G3 X1.5524 Y-0.3428 I0.0625 J0.0
G2 X1.9889 Y-2.0295 I-0.1172 J-0.9301
G3 X1.9633 Y-2.0799 I0.0369 J-0.0504
G1 Y-2.4073
G1 X0.9072
G1 Y-2.0799
G3 X0.8816 Y-2.0295 I-0.0625 J0.0
G2 X1.318 Y-0.3428 I0.5536 J0.7566
G3 X1.3727 Y-0.2808 I-0.0078 J0.062
G1 Y0.4971
G3 X1.3102 Y0.5596 I-0.0625 J0.0
G1 X0.9352
G3 X0.8727 Y0.4971 I0.0 J-0.0625
G1 Y0.0596
G1 X0.3702
G3 X0.0577 Y-0.2529 I0.0 J-0.3125
G1 Y-2.4898
G3 X0.3702 Y-2.8023 I0.3125 J0.0
G1 X0.979
G3 X1.0415 Y-2.7398 I0.0 J0.0625
G3 X1.104 Y-2.8023 I0.0625 J0.0
G1 F10.0 Z-0.25
G1 F60.0 X1.7664
G3 X1.8289 Y-2.7398 I0.0 J0.0625
G3 X1.8914 Y-2.8023 I0.0625 J0.0
G1 X2.5002
G3 X2.8127 Y-2.4898 I0.0 J0.3125
G1 Y-0.2529
G3 X2.5002 Y0.0596 I-0.3125 J0.0
G1 X1.9977
G1 Y0.4971
G3 X1.9352 Y0.5596 I-0.0625 J0.0
G1 X1.5602
G3 X1.4977 Y0.4971 I0.0 J-0.0625
G1 Y-0.2808
G3 X1.5524 Y-0.3428 I0.0625 J0.0
G2 X1.9889 Y-2.0295 I-0.1172 J-0.9301
G3 X1.9633 Y-2.0799 I0.0369 J-0.0504
G1 Y-2.4073
G1 X0.9072
G1 Y-2.0799
G3 X0.8816 Y-2.0295 I-0.0625 J0.0
G2 X1.318 Y-0.3428 I0.5536 J0.7566
G3 X1.3727 Y-0.2808 I-0.0078 J0.062
G1 Y0.4971
G3 X1.3102 Y0.5596 I-0.0625 J0.0
G1 X0.9352
G3 X0.8727 Y0.4971 I0.0 J-0.0625
G1 Y0.0596
G1 X0.3702
G3 X0.0577 Y-0.2529 I0.0 J-0.3125
G1 Y-2.4898
G3 X0.3702 Y-2.8023 I0.3125 J0.0
G1 X0.979
G3 X1.0415 Y-2.7398 I0.0 J0.0625
G3 X1.104 Y-2.8023 I0.0625 J0.0
G1 F10.0 Z-0.375
G1 F60.0 X1.7664
G3 X1.8289 Y-2.7398 I0.0 J0.0625
G3 X1.8914 Y-2.8023 I0.0625 J0.0
G1 X2.5002
G3 X2.8127 Y-2.4898 I0.0 J0.3125
G1 Y-2.0272
G1 Y-1.9147 Z-0.31
G1 Y-1.8022 Z-0.375
G1 Y-0.2529
G3 X2.5002 Y0.0596 I-0.3125 J0.0
G1 X1.9977
G1 Y0.4971
G3 X1.9352 Y0.5596 I-0.0625 J0.0
G1 X1.5602
G3 X1.4977 Y0.4971 I0.0 J-0.0625
G1 Y-0.2808
G3 X1.5524 Y-0.3428 I0.0625 J0.0
G2 X2.3665 Y-1.1648 I-0.1172 J-0.9301
G2 X2.3727 Y-1.2773 Z-0.31 I-0.9312 J-0.1082
G2 X2.3654 Y-1.3898 Z-0.375 I-0.9375 J0.0044
G2 X1.9889 Y-2.0295 I-0.9302 J0.1168
G3 X1.9633 Y-2.0799 I0.0369 J-0.0504
G1 Y-2.4073
G1 X0.9072
G1 Y-2.0799
G3 X0.8816 Y-2.0295 I-0.0625 J0.0
G2 X0.5027 Y-1.3695 I0.5536 J0.7566
G2 X0.4979 Y-1.2569 Z-0.31 I0.9325 J0.0966
G2 X0.5066 Y-1.1445 Z-0.375 I0.9374 J-0.016
G2 X1.318 Y-0.3428 I0.9287 J-0.1284
G3 X1.3727 Y-0.2808 I-0.0078 J0.062
G1 Y0.4971
G3 X1.3102 Y0.5596 I-0.0625 J0.0
G1 X0.9352
G3 X0.8727 Y0.4971 I0.0 J-0.0625
G1 Y0.0596
G1 X0.3702
G3 X0.0577 Y-0.2529 I0.0 J-0.3125
G1 Y-1.1398
G1 Y-1.2523 Z-0.31
G1 Y-1.3648 Z-0.375
G1 Y-2.4898
G3 X0.3702 Y-2.8023 I0.3125 J0.0
G1 X0.979
G3 X1.0415 Y-2.7398 I0.0 J0.0625
G3 X1.104 Y-2.8023 I0.0625 J0.0
G1 F10.0 Z-0.41
G1 F60.0 X1.7664
G3 X1.8289 Y-2.7398 I0.0 J0.0625
G3 X1.8914 Y-2.8023 I0.0625 J0.0
G1 X2.5002
G3 X2.8127 Y-2.4898 I0.0 J0.3125
G1 Y-2.0272
G1 Y-1.9147 Z-0.31
G1 Y-1.8022 Z-0.41
G1 Y-0.2529
G3 X2.5002 Y0.0596 I-0.3125 J0.0
G1 X1.9977
G1 Y0.4971
G3 X1.9352 Y0.5596 I-0.0625 J0.0
G1 X1.5602
G3 X1.4977 Y0.4971 I0.0 J-0.0625
G1 Y-0.2808
G3 X1.5524 Y-0.3428 I0.0625 J0.0
G2 X2.3665 Y-1.1648 I-0.1172 J-0.9301
G2 X2.3727 Y-1.2773 Z-0.31 I-0.9312 J-0.1082
G2 X2.3654 Y-1.3898 Z-0.41 I-0.9375 J0.0044
G2 X1.9889 Y-2.0295 I-0.9302 J0.1168
G3 X1.9633 Y-2.0799 I0.0369 J-0.0504
G1 Y-2.4073
G1 X0.9072
G1 Y-2.0799
G3 X0.8816 Y-2.0295 I-0.0625 J0.0
G2 X0.5027 Y-1.3695 I0.5536 J0.7566
G2 X0.4979 Y-1.2569 Z-0.31 I0.9325 J0.0966
G2 X0.5066 Y-1.1445 Z-0.41 I0.9374 J-0.016
G2 X1.318 Y-0.3428 I0.9287 J-0.1284
G3 X1.3727 Y-0.2808 I-0.0078 J0.062
G1 Y0.4971
G3 X1.3102 Y0.5596 I-0.0625 J0.0
G1 X0.9352
G3 X0.8727 Y0.4971 I0.0 J-0.0625
G1 Y0.0596
G1 X0.3702
G3 X0.0577 Y-0.2529 I0.0 J-0.3125
G1 Y-1.1398
G1 Y-1.2523 Z-0.31
G1 Y-1.3648 Z-0.41
G1 Y-2.4898
G3 X0.3702 Y-2.8023 I0.3125 J0.0
G1 X0.979
G3 X1.0415 Y-2.7398 I0.0 J0.0625
G3 X1.104 Y-2.8023 I0.0625 J0.0
G0 Z0.125
M5
M30
